fs/clock_arrow_download_20_regular.svg

<svg viewBox="0 0 20 20" fill="none" xmlns="http://www.w3.org/2000/svg" height="1em" width="1em">
  <path d="M3 9.5C3 5.35786 6.35786 2 10.5 2C14.6421 2 18 5.35786 18 9.5C18 13.6421 14.6421 17 10.5 17C10.4668 17 10.4336 16.9998 10.4005 16.9994C10.5633 16.6808 10.6959 16.3442 10.7947 15.9934C14.2478 15.8394 17 12.9911 17 9.5C17 5.91015 14.0899 3 10.5 3C7.00897 3 4.16073 5.75214 4.00657 9.20514C3.6558 9.30386 3.31924 9.43651 3.00064 9.5993C3.00022 9.56625 3 9.53315 3 9.5ZM10.5 5C10.7761 5 11 5.22386 11 5.5V9H13.5C13.7761 9 14 9.22386 14 9.5C14 9.77614 13.7761 10 13.5 10H10.5C10.2239 10 10 9.77614 10 9.5V5.5C10 5.22386 10.2239 5 10.5 5ZM5 10.0275C2.75002 10.2762 1 12.1837 1 14.5C1 16.9853 3.01472 19 5.5 19C7.98528 19 10 16.9853 10 14.5C10 12.1837 8.24998 10.2762 6 10.0275V13.7929L6.64645 13.1464C6.84171 12.9512 7.15829 12.9512 7.35355 13.1464C7.54882 13.3417 7.54882 13.6583 7.35355 13.8536L5.85355 15.3536C5.65829 15.5488 5.34171 15.5488 5.14645 15.3536L3.64645 13.8536C3.45118 13.6583 3.45118 13.3417 3.64645 13.1464C3.84171 12.9512 4.15829 12.9512 4.35355 13.1464L5 13.7929V10.0275ZM3.5 16H7.5C7.77614 16 8 16.2239 8 16.5C8 16.7761 7.77614 17 7.5 17H3.5C3.22386 17 3 16.7761 3 16.5C3 16.2239 3.22386 16 3.5 16Z" fill="#212121"/>
</svg>

<svg viewBox="0 0 20 20" fill="none" xmlns="http://www.w3.org/2000/svg" height="1em" width="1em">
  <path d="M3 9.5a7.5 7.5 0 1 1 7.4 7.5c.163-.32.296-.656.395-1.007a6.5 6.5 0 1 0-6.788-6.788 5.517 5.517 0 0 0-1.006.394L3 9.5ZM10.5 5a.5.5 0 0 1 .5.5V9h2.5a.5.5 0 0 1 0 1h-3a.5.5 0 0 1-.5-.5v-4a.5.5 0 0 1 .5-.5ZM5 10.027a4.5 4.5 0 1 0 1 0v3.766l.646-.647a.5.5 0 0 1 .708.708l-1.5 1.5a.5.5 0 0 1-.708 0l-1.5-1.5a.5.5 0 0 1 .708-.708l.646.647v-3.765ZM3.5 16h4a.5.5 0 0 1 0 1h-4a.5.5 0 0 1 0-1Z" fill="#212121"/>
</svg>
